X:1317
T:Bourr\'ee
T:from Suite BWV 996 (E minor version)
C:Johann Sebastian Bach
O:Germany
R:Bourr\'ee
Z:ABC transcription by Laurie Griffiths

M:4/4
L:1/8
K:Em
V:1
[K: transpose=-12]ef | g2fe ^d2ef | B2^c^d e2 =d=c |\
B2AG F2GA | BA GF E2ef |\
g2fe ^d2ef | B2^c^d e2=d=c | B2AG F2DG | G6::\
BG | d2Ac B2gd | e2Bd c2BA | ^G2AB c2BA | A4-A2dA |\
B2gd e2Bd | c2ae f2^ce | d2^cB ^A/B/A/B/A/B/A/B/ |\
B4-B2bf | ^g2fe a2e=g | f2ed g2d=f | e2ae f2^ce |\
^d2B2-B4| eB c2dA B2| cG A2BF G2| FE ^D2EF G2| FE E4:|
V:2 clef=bass
L:1/8
M:4/4
K:G
[K: transpose=-12]G,F, | E,2A,2B,2A,2| G,2F,2E,2F,2|\
G,2A,2B,2A,2 | G,2B,2E,F, G,F, | E,2A,2B,2A,2|\
G,2F,2E,2F,2| G,2C2D2D,2| [G,6B,6D6]::\
G,2| F,2D2G,2B,2| C2^G,2A,2D2| E2A,2E2E,2| A,B, A,G, F,2D2|\
G2B,2C2^G,2| A,2^C2D2^A,2| B,2E2F2F,2| B,^A, B,^C ^D2B,2|\
E2D2^C2A,2| D2C2B,2G,2| C2B,2A,2^A,2| B,4-B,C B,A, |\
^G,2A,E F2=G,^D | E2F,^C ^D2E,2| A,2B,2A,2B,2-| B,2E,4:|

